X: 1
T: the Top Of Ben Lomand
C: Scottish March
Z: Dan Mozell <Dan.Mozell:nashville.COM>
M: 6/8
L: 1/8
%Q: 1/4=120
K: D
a | f<af {G}d>fd | B<dB {G}A2 B | d>ef a>fd | {g}e>fd {g}e2 a |
f<af {G}d>fd | B<dB {G}A2 B | d>ef a>f{g}e | {B}d3 d2 :||:
g | a2 (3A/A/A/ f2 (3A/A/A/ | B<dB {G}A2 B | d>ef a>fd | {g}e>fd {g}e2 g |
a2 (3A/A/A/ f2 (3A/A/A/ | B<dB {G}A2 B | d>ef a>f{g}e | {B}d3 d2 :||
